; Hexagon Axial Diagonal (Tube)
; Generated by generate_hex_axial_diagonal_tube.py

; Generated date: 16-12-2024_174114
; diameter: 3
; CTS: 200
; angle: 60
; nhexagonsy: 15
; layers: 1
; circumference: 9.42477796076938
; total_y: 9.42477796076938
; poresizey: 0.6283185307179586
; movey: 0.3141592653589793
; movex: 0.18137993642342184
; sidelength: 0.3627598728468436
; Strategy: none
; start gcode
; Relative positioning
G91

; Layer 1/1
; forward-9
G0 X0.3627598728468436 F200.00
G0 X0.18137993642342184 U0.3141592653589793 F200.00
G0 X-0.18137993642342184 U0.3141592653589793 F200.00
G0 X-0.3627598728468436 F200.00
G0 X-0.18137993642342184 U0.3141592653589793 F200.00
G0 X0.18137993642342184 U0.3141592653589793 F200.00
G0 X0.3627598728468436 F200.00
G0 X0.18137993642342184 U0.3141592653589793 F200.00
G0 X-0.18137993642342184 U0.3141592653589793 F200.00
G0 X-0.3627598728468436 F200.00
G0 X-0.18137993642342184 U0.3141592653589793 F200.00
G0 X0.18137993642342184 U0.3141592653589793 F200.00
G0 X0.3627598728468436 F200.00
G0 X0.18137993642342184 U0.3141592653589793 F200.00
G0 X-0.18137993642342184 U0.3141592653589793 F200.00
G0 X-0.3627598728468436 F200.00
G0 X-0.18137993642342184 U0.3141592653589793 F200.00
G0 X0.18137993642342184 U0.3141592653589793 F200.00
G0 X0.3627598728468436 F200.00
G0 X0.18137993642342184 U0.3141592653589793 F200.00
G0 X-0.18137993642342184 U0.3141592653589793 F200.00
G0 X-0.3627598728468436 F200.00
G0 X-0.18137993642342184 U0.3141592653589793 F200.00
G0 X0.18137993642342184 U0.3141592653589793 F200.00
G0 X0.3627598728468436 F200.00
G0 X0.18137993642342184 U0.3141592653589793 F200.00
G0 X-0.18137993642342184 U0.3141592653589793 F200.00
G0 X-0.3627598728468436 F200.00
G0 X-0.18137993642342184 U0.3141592653589793 F200.00
G0 X0.18137993642342184 U0.3141592653589793 F200.00
G0 X0.3627598728468436 F200.00
G0 X0.18137993642342184 U0.3141592653589793 F200.00
G0 X-0.18137993642342184 U0.3141592653589793 F200.00
G0 X-0.3627598728468436 F200.00
G0 X-0.18137993642342184 U0.3141592653589793 F200.00
G0 X0.18137993642342184 U0.3141592653589793 F200.00
G0 X0.3627598728468436 F200.00
G0 X0.18137993642342184 U0.3141592653589793 F200.00
G0 X-0.18137993642342184 U0.3141592653589793 F200.00
G0 X-0.3627598728468436 F200.00
G0 X-0.18137993642342184 U0.3141592653589793 F200.00
G0 X0.18137993642342184 U0.3141592653589793 F200.00
G0 X0.3627598728468436 F200.00
G0 X0.18137993642342184 U0.3141592653589793 F200.00
G0 X-0.18137993642342184 U0.3141592653589793 F200.00
G0 X-0.3627598728468436 F200.00
G0 X-0.18137993642342184 U-0.3141592653589793 F200.00
G0 X0.18137993642342184 U-0.3141592653589793 F200.00
G0 X0.3627598728468436 F200.00
G0 X0.18137993642342184 U-0.3141592653589793 F200.00
G0 X-0.18137993642342184 U-0.3141592653589793 F200.00
G0 X-0.3627598728468436 F200.00
G0 X-0.18137993642342184 U-0.3141592653589793 F200.00
G0 X0.18137993642342184 U-0.3141592653589793 F200.00
G0 X0.3627598728468436 F200.00
G0 X0.18137993642342184 U-0.3141592653589793 F200.00
G0 X-0.18137993642342184 U-0.3141592653589793 F200.00
G0 X-0.3627598728468436 F200.00
G0 X-0.18137993642342184 U-0.3141592653589793 F200.00
G0 X0.18137993642342184 U-0.3141592653589793 F200.00
G0 X0.3627598728468436 F200.00
G0 X0.18137993642342184 U-0.3141592653589793 F200.00
G0 X-0.18137993642342184 U-0.3141592653589793 F200.00
G0 X-0.3627598728468436 F200.00
G0 X-0.18137993642342184 U-0.3141592653589793 F200.00
G0 X0.18137993642342184 U-0.3141592653589793 F200.00
G0 X0.3627598728468436 F200.00
G0 X0.18137993642342184 U-0.3141592653589793 F200.00
G0 X-0.18137993642342184 U-0.3141592653589793 F200.00
G0 X-0.3627598728468436 F200.00
G0 X-0.18137993642342184 U-0.3141592653589793 F200.00
G0 X0.18137993642342184 U-0.3141592653589793 F200.00
G0 X0.3627598728468436 F200.00
G0 X0.18137993642342184 U-0.3141592653589793 F200.00
G0 X-0.18137993642342184 U-0.3141592653589793 F200.00
G0 X-0.3627598728468436 F200.00
G0 X-0.18137993642342184 U-0.3141592653589793 F200.00
G0 X0.18137993642342184 U-0.3141592653589793 F200.00
G0 X0.3627598728468436 F200.00
G0 X0.18137993642342184 U-0.3141592653589793 F200.00
G0 X-0.18137993642342184 U-0.3141592653589793 F200.00
G0 X-0.3627598728468436 F200.00
G0 X-0.18137993642342184 U-0.3141592653589793 F200.00
G0 X0.18137993642342184 U-0.3141592653589793 F200.00
G0 X0.3627598728468436 F200.00
G0 X0.18137993642342184 U-0.3141592653589793 F200.00
G0 X-0.18137993642342184 U-0.3141592653589793 F200.00
G0 X-0.3627598728468436 F200.00
G0 X-0.18137993642342184 U-0.3141592653589793 F200.00
G0 X0.18137993642342184 U-0.3141592653589793 F200.00
G0 X0.3627598728468436 F200.00
G0 X0.18137993642342184 U0.3141592653589793 F200.00
G0 X0.3627598728468436 F200.00
G0 X0.18137993642342184 U0.3141592653589793 F200.00
G0 X-0.18137993642342184 U0.3141592653589793 F200.00
G0 X-0.3627598728468436 F200.00
G0 X-0.18137993642342184 U0.3141592653589793 F200.00
G0 X0.18137993642342184 U0.3141592653589793 F200.00
G0 X0.3627598728468436 F200.00
G0 X0.18137993642342184 U0.3141592653589793 F200.00
G0 X-0.18137993642342184 U0.3141592653589793 F200.00
G0 X-0.3627598728468436 F200.00
G0 X-0.18137993642342184 U0.3141592653589793 F200.00
G0 X0.18137993642342184 U0.3141592653589793 F200.00
G0 X0.3627598728468436 F200.00
G0 X0.18137993642342184 U0.3141592653589793 F200.00
G0 X-0.18137993642342184 U0.3141592653589793 F200.00
G0 X-0.3627598728468436 F200.00
G0 X-0.18137993642342184 U0.3141592653589793 F200.00
G0 X0.18137993642342184 U0.3141592653589793 F200.00
G0 X0.3627598728468436 F200.00
G0 X0.18137993642342184 U0.3141592653589793 F200.00
G0 X-0.18137993642342184 U0.3141592653589793 F200.00
G0 X-0.3627598728468436 F200.00
G0 X-0.18137993642342184 U0.3141592653589793 F200.00
G0 X0.18137993642342184 U0.3141592653589793 F200.00
G0 X0.3627598728468436 F200.00
G0 X0.18137993642342184 U0.3141592653589793 F200.00
G0 X-0.18137993642342184 U0.3141592653589793 F200.00
G0 X-0.3627598728468436 F200.00
G0 X-0.18137993642342184 U0.3141592653589793 F200.00
G0 X0.18137993642342184 U0.3141592653589793 F200.00
G0 X0.3627598728468436 F200.00
G0 X0.18137993642342184 U0.3141592653589793 F200.00
G0 X-0.18137993642342184 U0.3141592653589793 F200.00
G0 X-0.3627598728468436 F200.00
G0 X-0.18137993642342184 U0.3141592653589793 F200.00
G0 X0.18137993642342184 U0.3141592653589793 F200.00
G0 X0.3627598728468436 F200.00
G0 X0.18137993642342184 U0.3141592653589793 F200.00
G0 X-0.18137993642342184 U0.3141592653589793 F200.00
G0 X-0.3627598728468436 F200.00
G0 X-0.18137993642342184 U0.3141592653589793 F200.00
G0 X0.18137993642342184 U0.3141592653589793 F200.00
G0 X0.3627598728468436 F200.00
G0 X0.18137993642342184 U0.3141592653589793 F200.00
G0 X-0.18137993642342184 U0.3141592653589793 F200.00
G0 X-0.3627598728468436 F200.00
G0 X-0.18137993642342184 U-0.3141592653589793 F200.00
G0 X0.18137993642342184 U-0.3141592653589793 F200.00
G0 X0.3627598728468436 F200.00
G0 X0.18137993642342184 U-0.3141592653589793 F200.00
G0 X-0.18137993642342184 U-0.3141592653589793 F200.00
G0 X-0.3627598728468436 F200.00
G0 X-0.18137993642342184 U-0.3141592653589793 F200.00
G0 X0.18137993642342184 U-0.3141592653589793 F200.00
G0 X0.3627598728468436 F200.00
G0 X0.18137993642342184 U-0.3141592653589793 F200.00
G0 X-0.18137993642342184 U-0.3141592653589793 F200.00
G0 X-0.3627598728468436 F200.00
G0 X-0.18137993642342184 U-0.3141592653589793 F200.00
G0 X0.18137993642342184 U-0.3141592653589793 F200.00
G0 X0.3627598728468436 F200.00
G0 X0.18137993642342184 U-0.3141592653589793 F200.00
G0 X-0.18137993642342184 U-0.3141592653589793 F200.00
G0 X-0.3627598728468436 F200.00
G0 X-0.18137993642342184 U-0.3141592653589793 F200.00
G0 X0.18137993642342184 U-0.3141592653589793 F200.00
G0 X0.3627598728468436 F200.00
G0 X0.18137993642342184 U-0.3141592653589793 F200.00
G0 X-0.18137993642342184 U-0.3141592653589793 F200.00
G0 X-0.3627598728468436 F200.00
G0 X-0.18137993642342184 U-0.3141592653589793 F200.00
G0 X0.18137993642342184 U-0.3141592653589793 F200.00
G0 X0.3627598728468436 F200.00
G0 X0.18137993642342184 U-0.3141592653589793 F200.00
G0 X-0.18137993642342184 U-0.3141592653589793 F200.00
G0 X-0.3627598728468436 F200.00
G0 X-0.18137993642342184 U-0.3141592653589793 F200.00
G0 X0.18137993642342184 U-0.3141592653589793 F200.00
G0 X0.3627598728468436 F200.00
G0 X0.18137993642342184 U-0.3141592653589793 F200.00
G0 X-0.18137993642342184 U-0.3141592653589793 F200.00
G0 X-0.3627598728468436 F200.00
G0 X-0.18137993642342184 U-0.3141592653589793 F200.00
G0 X0.18137993642342184 U-0.3141592653589793 F200.00
G0 X0.3627598728468436 F200.00
G0 X0.18137993642342184 U-0.3141592653589793 F200.00
G0 X-0.18137993642342184 U-0.3141592653589793 F200.00
G0 X-0.3627598728468436 F200.00
G0 X-0.18137993642342184 U-0.3141592653589793 F200.00
G0 X0.18137993642342184 U-0.3141592653589793 F200.00
G0 X0.3627598728468436 F200.00
G0 X0.18137993642342184 U-0.3141592653589793 F200.00
G0 X0.3627598728468436 F200.00
G0 X0.18137993642342184 U0.3141592653589793 F200.00
G0 X-0.18137993642342184 U0.3141592653589793 F200.00
G0 X-0.3627598728468436 F200.00
G0 X-0.18137993642342184 U0.3141592653589793 F200.00
G0 X0.18137993642342184 U0.3141592653589793 F200.00
G0 X0.3627598728468436 F200.00
G0 X0.18137993642342184 U0.3141592653589793 F200.00
G0 X-0.18137993642342184 U0.3141592653589793 F200.00
G0 X-0.3627598728468436 F200.00
G0 X-0.18137993642342184 U0.3141592653589793 F200.00
G0 X0.18137993642342184 U0.3141592653589793 F200.00
G0 X0.3627598728468436 F200.00
G0 X0.18137993642342184 U0.3141592653589793 F200.00
G0 X-0.18137993642342184 U0.3141592653589793 F200.00
G0 X-0.3627598728468436 F200.00
G0 X-0.18137993642342184 U0.3141592653589793 F200.00
G0 X0.18137993642342184 U0.3141592653589793 F200.00
G0 X0.3627598728468436 F200.00
G0 X0.18137993642342184 U0.3141592653589793 F200.00
G0 X-0.18137993642342184 U0.3141592653589793 F200.00
G0 X-0.3627598728468436 F200.00
G0 X-0.18137993642342184 U0.3141592653589793 F200.00
G0 X0.18137993642342184 U0.3141592653589793 F200.00
G0 X0.3627598728468436 F200.00
G0 X0.18137993642342184 U0.3141592653589793 F200.00
G0 X-0.18137993642342184 U0.3141592653589793 F200.00
G0 X-0.3627598728468436 F200.00
G0 X-0.18137993642342184 U0.3141592653589793 F200.00
G0 X0.18137993642342184 U0.3141592653589793 F200.00
G0 X0.3627598728468436 F200.00
G0 X0.18137993642342184 U0.3141592653589793 F200.00
G0 X-0.18137993642342184 U0.3141592653589793 F200.00
G0 X-0.3627598728468436 F200.00
G0 X-0.18137993642342184 U0.3141592653589793 F200.00
G0 X0.18137993642342184 U0.3141592653589793 F200.00
G0 X0.3627598728468436 F200.00
G0 X0.18137993642342184 U0.3141592653589793 F200.00
G0 X-0.18137993642342184 U0.3141592653589793 F200.00
G0 X-0.3627598728468436 F200.00
G0 X-0.18137993642342184 U0.3141592653589793 F200.00
G0 X0.18137993642342184 U0.3141592653589793 F200.00
G0 X0.3627598728468436 F200.00
G0 X0.18137993642342184 U0.3141592653589793 F200.00
G0 X-0.18137993642342184 U0.3141592653589793 F200.00
G0 X-0.3627598728468436 F200.00
G0 X-0.18137993642342184 U-0.3141592653589793 F200.00
G0 X0.18137993642342184 U-0.3141592653589793 F200.00
G0 X0.3627598728468436 F200.00
G0 X0.18137993642342184 U-0.3141592653589793 F200.00
G0 X-0.18137993642342184 U-0.3141592653589793 F200.00
G0 X-0.3627598728468436 F200.00
G0 X-0.18137993642342184 U-0.3141592653589793 F200.00
G0 X0.18137993642342184 U-0.3141592653589793 F200.00
G0 X0.3627598728468436 F200.00
G0 X0.18137993642342184 U-0.3141592653589793 F200.00
G0 X-0.18137993642342184 U-0.3141592653589793 F200.00
G0 X-0.3627598728468436 F200.00
G0 X-0.18137993642342184 U-0.3141592653589793 F200.00
G0 X0.18137993642342184 U-0.3141592653589793 F200.00
G0 X0.3627598728468436 F200.00
G0 X0.18137993642342184 U-0.3141592653589793 F200.00
G0 X-0.18137993642342184 U-0.3141592653589793 F200.00
G0 X-0.3627598728468436 F200.00
G0 X-0.18137993642342184 U-0.3141592653589793 F200.00
G0 X0.18137993642342184 U-0.3141592653589793 F200.00
G0 X0.3627598728468436 F200.00
G0 X0.18137993642342184 U-0.3141592653589793 F200.00
G0 X-0.18137993642342184 U-0.3141592653589793 F200.00
G0 X-0.3627598728468436 F200.00
G0 X-0.18137993642342184 U-0.3141592653589793 F200.00
G0 X0.18137993642342184 U-0.3141592653589793 F200.00
G0 X0.3627598728468436 F200.00
G0 X0.18137993642342184 U-0.3141592653589793 F200.00
G0 X-0.18137993642342184 U-0.3141592653589793 F200.00
G0 X-0.3627598728468436 F200.00
G0 X-0.18137993642342184 U-0.3141592653589793 F200.00
G0 X0.18137993642342184 U-0.3141592653589793 F200.00
G0 X0.3627598728468436 F200.00
G0 X0.18137993642342184 U-0.3141592653589793 F200.00
G0 X-0.18137993642342184 U-0.3141592653589793 F200.00
G0 X-0.3627598728468436 F200.00
G0 X-0.18137993642342184 U-0.3141592653589793 F200.00
G0 X0.18137993642342184 U-0.3141592653589793 F200.00
G0 X0.3627598728468436 F200.00
G0 X0.18137993642342184 U-0.3141592653589793 F200.00
G0 X-0.18137993642342184 U-0.3141592653589793 F200.00
G0 X-0.3627598728468436 F200.00
G0 X-0.18137993642342184 U-0.3141592653589793 F200.00
G0 X0.18137993642342184 U-0.3141592653589793 F200.00
G0 X0.3627598728468436 F200.00
G0 X0.18137993642342184 U0.3141592653589793 F200.00
G0 X0.3627598728468436 F200.00
G0 X0.18137993642342184 U0.3141592653589793 F200.00
G0 X-0.18137993642342184 U0.3141592653589793 F200.00
G0 X-0.3627598728468436 F200.00
G0 X-0.18137993642342184 U0.3141592653589793 F200.00
G0 X0.18137993642342184 U0.3141592653589793 F200.00
G0 X0.3627598728468436 F200.00
G0 X0.18137993642342184 U0.3141592653589793 F200.00
G0 X-0.18137993642342184 U0.3141592653589793 F200.00
G0 X-0.3627598728468436 F200.00
G0 X-0.18137993642342184 U0.3141592653589793 F200.00
G0 X0.18137993642342184 U0.3141592653589793 F200.00
G0 X0.3627598728468436 F200.00
G0 X0.18137993642342184 U0.3141592653589793 F200.00
G0 X-0.18137993642342184 U0.3141592653589793 F200.00
G0 X-0.3627598728468436 F200.00
G0 X-0.18137993642342184 U0.3141592653589793 F200.00
G0 X0.18137993642342184 U0.3141592653589793 F200.00
G0 X0.3627598728468436 F200.00
G0 X0.18137993642342184 U0.3141592653589793 F200.00
G0 X-0.18137993642342184 U0.3141592653589793 F200.00
G0 X-0.3627598728468436 F200.00
G0 X-0.18137993642342184 U0.3141592653589793 F200.00
G0 X0.18137993642342184 U0.3141592653589793 F200.00
G0 X0.3627598728468436 F200.00
G0 X0.18137993642342184 U0.3141592653589793 F200.00
G0 X-0.18137993642342184 U0.3141592653589793 F200.00
G0 X-0.3627598728468436 F200.00
G0 X-0.18137993642342184 U0.3141592653589793 F200.00
G0 X0.18137993642342184 U0.3141592653589793 F200.00
G0 X0.3627598728468436 F200.00
G0 X0.18137993642342184 U0.3141592653589793 F200.00
G0 X-0.18137993642342184 U0.3141592653589793 F200.00
G0 X-0.3627598728468436 F200.00
G0 X-0.18137993642342184 U0.3141592653589793 F200.00
G0 X0.18137993642342184 U0.3141592653589793 F200.00
G0 X0.3627598728468436 F200.00
G0 X0.18137993642342184 U0.3141592653589793 F200.00
G0 X-0.18137993642342184 U0.3141592653589793 F200.00
G0 X-0.3627598728468436 F200.00
G0 X-0.18137993642342184 U0.3141592653589793 F200.00
G0 X0.18137993642342184 U0.3141592653589793 F200.00
G0 X0.3627598728468436 F200.00
G0 X0.18137993642342184 U0.3141592653589793 F200.00
G0 X-0.18137993642342184 U0.3141592653589793 F200.00
G0 X-0.3627598728468436 F200.00
G0 X-0.18137993642342184 U-0.3141592653589793 F200.00
G0 X0.18137993642342184 U-0.3141592653589793 F200.00
G0 X0.3627598728468436 F200.00
G0 X0.18137993642342184 U-0.3141592653589793 F200.00
G0 X-0.18137993642342184 U-0.3141592653589793 F200.00
G0 X-0.3627598728468436 F200.00
G0 X-0.18137993642342184 U-0.3141592653589793 F200.00
G0 X0.18137993642342184 U-0.3141592653589793 F200.00
G0 X0.3627598728468436 F200.00
G0 X0.18137993642342184 U-0.3141592653589793 F200.00
G0 X-0.18137993642342184 U-0.3141592653589793 F200.00
G0 X-0.3627598728468436 F200.00
G0 X-0.18137993642342184 U-0.3141592653589793 F200.00
G0 X0.18137993642342184 U-0.3141592653589793 F200.00
G0 X0.3627598728468436 F200.00
G0 X0.18137993642342184 U-0.3141592653589793 F200.00
G0 X-0.18137993642342184 U-0.3141592653589793 F200.00
G0 X-0.3627598728468436 F200.00
