; Generated by generate_square_basic_tube.py
; Generated date: 17-12-2024_162820
;
; hide_grid: true
; x_axis: x
; y_axis: u
; z_axis: z
; point_size: 5
; enable_cylindrical: true
; cylindrical_long_axis: x
; cylindrical_long_axis_diameter: 3

; start gcode
; Relative positioning
G91

G0 X0 U0
G1 X9.979176664344049 F100.0
G1 U0.5543987035746694 F70.0
G1 X-9.979176664344049 F100.0
G1 U0.5543987035746694 F70.0
G1 X9.979176664344049 F100.0
G1 U0.5543987035746694 F70.0
G1 X-9.979176664344049 F100.0
G1 U0.5543987035746694 F70.0
G1 X9.979176664344049 F100.0
G1 U0.5543987035746694 F70.0
G1 X-9.979176664344049 F100.0
G1 U0.5543987035746694 F70.0
G1 X9.979176664344049 F100.0
G1 U0.5543987035746694 F70.0
G1 X-9.979176664344049 F100.0
G1 U0.5543987035746694 F70.0
G1 X9.979176664344049 F100.0
G1 U0.5543987035746694 F70.0
G1 X-9.979176664344049 F100.0
G1 U0.5543987035746694 F70.0
G1 X9.979176664344049 F100.0
G1 U0.5543987035746694 F70.0
G1 X-9.979176664344049 F100.0
G1 U0.5543987035746694 F70.0
G1 X9.979176664344049 F100.0
G1 U0.5543987035746694 F70.0
G1 X-9.979176664344049 F100.0
G1 U0.5543987035746694 F70.0
G1 X9.979176664344049 F100.0
G1 U0.5543987035746694 F70.0
G1 X-9.979176664344049 F100.0
G1 U0.5543987035746694 F70.0
G1 X9.979176664344049 F100.0
G1 U0.5543987035746694 F70.0
; x_direction=-1 u_direction=1
G1 U9.42477796076938 F100.0
G1 X-0.5543987035746694 F70.0
G1 U-9.42477796076938 F100.0
G1 X-0.5543987035746694 F70.0
G1 U9.42477796076938 F100.0
G1 X-0.5543987035746694 F70.0
G1 U-9.42477796076938 F100.0
G1 X-0.5543987035746694 F70.0
G1 U9.42477796076938 F100.0
G1 X-0.5543987035746694 F70.0
G1 U-9.42477796076938 F100.0
G1 X-0.5543987035746694 F70.0
G1 U9.42477796076938 F100.0
G1 X-0.5543987035746694 F70.0
G1 U-9.42477796076938 F100.0
G1 X-0.5543987035746694 F70.0
G1 U9.42477796076938 F100.0
G1 X-0.5543987035746694 F70.0
G1 U-9.42477796076938 F100.0
G1 X-0.5543987035746694 F70.0
G1 U9.42477796076938 F100.0
G1 X-0.5543987035746694 F70.0
G1 U-9.42477796076938 F100.0
G1 X-0.5543987035746694 F70.0
G1 U9.42477796076938 F100.0
G1 X-0.5543987035746694 F70.0
G1 U-9.42477796076938 F100.0
G1 X-0.5543987035746694 F70.0
G1 U9.42477796076938 F100.0
G1 X-0.5543987035746694 F70.0
G1 U-9.42477796076938 F100.0
G1 X-0.5543987035746694 F70.0
G1 U9.42477796076938 F100.0
G1 X-0.5543987035746694 F70.0
G1 U-9.42477796076938 F100.0
G1 X-0.5543987035746694 F70.0
G1 U9.42477796076938 F100.0